symbols/web/7k_plus/materialsymbolsrounded/7k_plus_wght200gradN25_24px.svg

<svg xmlns="http://www.w3.org/2000/svg" height="24" width="24"><path d="M11.65 14.65q.175 0 .3-.125t.125-.3V12.3l2.175 2.225q.05.075.138.1.087.025.162.025.3 0 .4-.25.1-.25-.1-.45l-1.95-2 1.975-1.9q.2-.2.1-.45t-.4-.25q-.075 0-.162.037-.088.038-.138.088l-2.2 2.175v-1.9q0-.15-.125-.275-.125-.125-.3-.125t-.3.125q-.125.125-.125.3v4.475q0 .15.125.275.125.125.3.125Zm-3.45 0q.15 0 .25-.075t.15-.225l1.4-4.1q.125-.35-.087-.625-.213-.275-.538-.275H6.65q-.15 0-.275.125-.125.125-.125.3t.125.3q.125.125.3.125h2.45l-1.35 3.9q-.075.2.05.375t.375.175Zm-2.525 5.2q-.65 0-1.087-.437-.438-.438-.438-1.088V5.675q0-.65.438-1.088.437-.437 1.087-.437h12.65q.65 0 1.088.437.437.438.437 1.088v12.65q0 .65-.437 1.088-.438.437-1.088.437Zm0-.9h12.65q.275 0 .45-.175t.175-.45V5.675q0-.275-.175-.45t-.45-.175H5.675q-.275 0-.45.175t-.175.45v12.65q0 .275.175.45t.45.175ZM5.05 5.05v13.9-13.9Zm12 8.8q.15 0 .262-.1.113-.1.113-.275v-1.1h1.15q.15 0 .262-.113.113-.112.113-.287 0-.125-.113-.237-.112-.113-.262-.113h-1.15v-1.15q0-.125-.113-.237-.112-.113-.262-.113-.15 0-.262.1-.113.1-.113.275v1.125H15.55q-.15 0-.262.113-.113.112-.113.262 0 .15.113.262.112.113.262.113h1.125V13.5q0 .15.113.25.112.1.262.1Z"/></svg>

<svg xmlns="http://www.w3.org/2000/svg" height="24" width="24"><path d="M11.65 14.65Q11.825 14.65 11.95 14.525Q12.075 14.4 12.075 14.225V12.3L14.25 14.525Q14.3 14.6 14.388 14.625Q14.475 14.65 14.55 14.65Q14.85 14.65 14.95 14.4Q15.05 14.15 14.85 13.95L12.9 11.95L14.875 10.05Q15.075 9.85 14.975 9.6Q14.875 9.35 14.575 9.35Q14.5 9.35 14.413 9.387Q14.325 9.425 14.275 9.475L12.075 11.65V9.75Q12.075 9.6 11.95 9.475Q11.825 9.35 11.65 9.35Q11.475 9.35 11.35 9.475Q11.225 9.6 11.225 9.775V14.25Q11.225 14.4 11.35 14.525Q11.475 14.65 11.65 14.65ZM8.2 14.65Q8.35 14.65 8.45 14.575Q8.55 14.5 8.6 14.35L10 10.25Q10.125 9.9 9.913 9.625Q9.7 9.35 9.375 9.35H6.65Q6.5 9.35 6.375 9.475Q6.25 9.6 6.25 9.775Q6.25 9.95 6.375 10.075Q6.5 10.2 6.675 10.2H9.125L7.775 14.1Q7.7 14.3 7.825 14.475Q7.95 14.65 8.2 14.65ZM5.675 19.85Q5.025 19.85 4.588 19.413Q4.15 18.975 4.15 18.325V5.675Q4.15 5.025 4.588 4.587Q5.025 4.15 5.675 4.15H18.325Q18.975 4.15 19.413 4.587Q19.85 5.025 19.85 5.675V18.325Q19.85 18.975 19.413 19.413Q18.975 19.85 18.325 19.85ZM5.675 18.95H18.325Q18.6 18.95 18.775 18.775Q18.95 18.6 18.95 18.325V5.675Q18.95 5.4 18.775 5.225Q18.6 5.05 18.325 5.05H5.675Q5.4 5.05 5.225 5.225Q5.05 5.4 5.05 5.675V18.325Q5.05 18.6 5.225 18.775Q5.4 18.95 5.675 18.95ZM5.05 5.05Q5.05 5.05 5.05 5.225Q5.05 5.4 5.05 5.675V18.325Q5.05 18.6 5.05 18.775Q5.05 18.95 5.05 18.95Q5.05 18.95 5.05 18.775Q5.05 18.6 5.05 18.325V5.675Q5.05 5.4 5.05 5.225Q5.05 5.05 5.05 5.05ZM17.05 13.85Q17.2 13.85 17.312 13.75Q17.425 13.65 17.425 13.475V12.375H18.575Q18.725 12.375 18.837 12.262Q18.95 12.15 18.95 11.975Q18.95 11.85 18.837 11.738Q18.725 11.625 18.575 11.625H17.425V10.475Q17.425 10.35 17.312 10.238Q17.2 10.125 17.05 10.125Q16.9 10.125 16.788 10.225Q16.675 10.325 16.675 10.5V11.625H15.55Q15.4 11.625 15.288 11.738Q15.175 11.85 15.175 12Q15.175 12.15 15.288 12.262Q15.4 12.375 15.55 12.375H16.675V13.5Q16.675 13.65 16.788 13.75Q16.9 13.85 17.05 13.85Z"/></svg>
